X:1
T:Merida's Dance 
C: David Kimdon
M:3/4
L:1/4
K:D
"D"Ddc|"G"B3|GAG|"Bm"F3|"Gmaj7"-F3|"D"A,DG|F3|"G"E2D|
"Em"E3|"A7"-E3|"A"EFG|"Bm"F3|"G"G3|"A"A3|AAc|"Bm"d2d|
"G"d/2e/2d/2c/2B|B3|B3/2B/2 A/2G/2|"D"F3|"A7"GFE|"D"F3|"A7"GEC|"D"D3|]
